src/assets/images/twitter-icon.svg

<svg fill="none" height="24" viewBox="0 0 24 24" width="24" xmlns="http://www.w3.org/2000/svg"><path d="m22.1618 5.65605c-.7634.33769-1.573.55947-2.402.658.8738-.52257 1.5277-1.34499 1.84-2.314-.82.488-1.719.83-2.656 1.015-.6294-.67342-1.4636-1.12004-2.373-1.27042s-1.8431.00391-2.6557.43887c-.8127.43496-1.4589 1.12623-1.8382 1.96634s-.4703 1.78199-.2591 2.67921c-1.6629-.08335-3.28966-.51548-4.7747-1.26834-1.48505-.75286-2.79516-1.80961-3.84529-3.10166-.37171.63845-.56705 1.36423-.566 2.103 0 1.45.738 2.731 1.86 3.48095-.66399-.0209-1.31337-.20017-1.894-.52295v.052c.0002.96565.33437 1.90165.94585 2.64905.61147.7475 1.46263 1.2604 2.40915 1.4519-.61639.1671-1.26269.1917-1.89.072.26687.8313.78701 1.5582 1.48759 2.0792.70059.5209 1.54654.8096 2.41941.8258-.86752.6814-1.86082 1.185-2.92312 1.4822s-2.17275.3821-3.26788.2498c1.9117 1.2295 4.13709 1.8822 6.41 1.88 7.69299 0 11.89999-6.373 11.89999-11.89995 0-.18-.005-.362-.013-.54.8189-.59183 1.5256-1.32498 2.087-2.165z" fill="#000"/></svg>

<svg width="24" height="24" viewBox="0 0 24 24" fill="none" xmlns="http://www.w3.org/2000/svg">
<path d="M22.1618 5.65605C21.3984 5.99374 20.5888 6.21552 19.7598 6.31405C20.6336 5.79148 21.2875 4.96906 21.5998 4.00005C20.7798 4.48805 19.8808 4.83005 18.9438 5.01505C18.3144 4.34163 17.4802 3.89501 16.5708 3.74463C15.6614 3.59425 14.7277 3.74854 13.9151 4.1835C13.1024 4.61846 12.4562 5.30973 12.0769 6.14984C11.6976 6.98995 11.6066 7.93183 11.8178 8.82905C10.1549 8.7457 8.52814 8.31357 7.0431 7.56071C5.55805 6.80785 4.24794 5.7511 3.19781 4.45905C2.8261 5.0975 2.63076 5.82328 2.63181 6.56205C2.63181 8.01205 3.36981 9.29305 4.49181 10.043C3.82782 10.0221 3.17844 9.84283 2.59781 9.52005V9.57205C2.59801 10.5377 2.93218 11.4737 3.54366 12.2211C4.15513 12.9686 5.00629 13.4815 5.95281 13.673C5.33642 13.8401 4.69012 13.8647 4.06281 13.745C4.32968 14.5763 4.84982 15.3032 5.5504 15.8242C6.25099 16.3451 7.09694 16.6338 7.96981 16.65C7.10229 17.3314 6.10899 17.835 5.04669 18.1322C3.98439 18.4294 2.87394 18.5143 1.77881 18.382C3.69051 19.6115 5.9159 20.2642 8.18881 20.262C15.8818 20.262 20.0888 13.889 20.0888 8.36205C20.0888 8.18205 20.0838 8.00005 20.0758 7.82205C20.8947 7.23022 21.6014 6.49707 22.1628 5.65705L22.1618 5.65605Z" fill="black"/>
</svg>
